X:510
%%etbk:tnset id:234,pos:3,rep:3x,ant:
%%etbk:wsite http://thesession.org/tunes/1974
%%etbk:pldat 2016-07-23T17:03,2016-07-21T19:32,2014-11-19T16:44,2014-05-17T15:17,2014-04-12T15:39,2014-04-07T19:40,2013-12-11T16:18,2013-11-18T18:29,2013-11-17T15:19,2013-11-03T15:11,2013-10-02T18:15,2013-09-27T14:39,2013-09-26T16:10
T:I Have No Money
Z: Piano Box Version by Martin Fleischmann
H: Created 2013-09-11 /  Last Modified 2013-09-27
R:Reel
M:4/4
K:Dmaj
|: "D"!2!F!3!A!5!dB !3!A2{B}A!1!G | !2!FA!5!d!3!A "A"!2!F!1!EEE | "D"!2!FA!5!d!4!B !1!A2A!3!f |1 "A"!5!a!3!f!2!e!4!g "D"!3!f!1!d!3!d!1!A:|2 "A"!5!a!3!f!2!e!4!g "D"!3!f!1!dd!3!f ||
| "D"!5!a!3!f!2!ef !1!d2df | !5!a!3!f!2!e!4!g !3!f!1!BB!3!f | !5!a!3!fef !1!ded!2!B | "A"!1!A2{B}A!3!G "D"!2!F!1!DD!3!f |
| "D"!5!afef !1!d2df | !5!afeg !3!fBBf | !5!a2af !2!e!1!d!2!B!4!d | "A"!1!ABA!3!G !2!F!3!A!5!d!3!A ||


